X: 21021
T: HARK: THE LARK
Q: "Siciliano"
%R: jig
B: "Edinburgh Repository of Music" v.2 p.102
F: http://digital.nls.uk/special-collections-of-printed-music/pageturner.cfm?id=87776133
Z: 2015 John Chambers <jc:trillian.mit.edu>
N: Fixed a few missing dots.
M: 6/8
L: 1/8
K: C
[|\
c3 z2z | d3 z2f |\
e2c dcB | c3 z2z |\
c3 z2z | d3 z2f |\
e2c (ecB) | c3 c2d |\
e2e e2^f | g3 g2d |
e3 e2e | d2B c2A |\
B2c d2c | B3 TA3 |\
G6 |] zGA BAG |\
c2c c2c | A2B cBA |\
d3- d2c | B2c dcB |
e2e e2d | c2"_rallentando."d edc |\
f3- f2e | {e}Hd3 Hd2G |\
"_Tempo 1mo"c2c c2d | e2e e2f |\
g2c dcB | c3 cz G |\
c2G c2d | e3 e2d |
e2d e2f | g3 z2g |\
a2a a2a | g2f e2f |\
g2c dcB | c3 z2G |\
c3 c2d | e3 e2f |\
gfe dcB | c3 z2c |\
c3 Hc3 |]

%%sep 2 1 500
%%sep 1 1 500

